src/pos-icons/water-well.svg

<svg height="24" viewBox="0 0 24 24" width="24" xmlns="http://www.w3.org/2000/svg"><path d="m22 16h-20v2h2v4h16v-4h2zm-11.56-1c-.25 0-.44-.19-.49-.44l-.38-3c0-.02 0-.06 0-.06 0-.28.22-.5.5-.5h3.86.07c.27.04.46.29.43.56l-.38 3c-.05.25-.24.44-.49.44zm8.56-13 2.56 4.68c.04.1.05.21.05.32 0 .56-.45 1-1 1h-1.61v7h-2v-7h-4v2h-2v-2h-4v7h-2v-7h-1.38c-.16 0-.31-.04-.46-.11-.49-.25-.69-.85-.44-1.34l2.28-4.55z"/></svg>

<?xml version="1.0" encoding="UTF-8"?><!DOCTYPE svg PUBLIC "-//W3C//DTD SVG 1.1//EN" "http://www.w3.org/Graphics/SVG/1.1/DTD/svg11.dtd"><svg xmlns="http://www.w3.org/2000/svg" xmlns:xlink="http://www.w3.org/1999/xlink" version="1.1" id="mdi-water-well" width="24" height="24" viewBox="0 0 24 24"><path d="M22 16H2V18H4V22H20V18H22V16M10.44 15C10.19 15 10 14.81 9.95 14.56L9.57 11.56C9.57 11.54 9.57 11.5 9.57 11.5C9.57 11.22 9.79 11 10.07 11H13.93C13.95 11 13.97 11 14 11C14.27 11.04 14.46 11.29 14.43 11.56L14.05 14.56C14 14.81 13.81 15 13.56 15H10.44M19 2L21.56 6.68C21.6 6.78 21.61 6.89 21.61 7C21.61 7.56 21.16 8 20.61 8H19V15H17V8H13V10H11V8H7V15H5V8H3.62C3.46 8 3.31 7.96 3.16 7.89C2.67 7.64 2.47 7.04 2.72 6.55L5 2H19Z" /></svg>
